%
(STVOREC)
(T30601 D=6. CR=0. - ZMIN=-10. - FLAT END MILL)
N10 G90 G94 G17 G91.1
N15 G21
N20 G53 G0 Z0.
(FACE2)
N35 G17 G90 G94
N40 G54
N45 G64 P0.001 Q0.001
N50 G0 X0 Y0
N55 G43 Z15. H30601
N60 G0 Z5.
N65 G1 Z0 F3000
G1 X-100
G1 Y-100
G1 X0
G1 Y0
G1 X-100
G1 Y-100
G1 X0
G1 Y0
G1 X-100
G1 Y-100
G1 X0
G1 Y0
G1 X-100
G1 Y-100
G1 X0
G1 Y0
G1 X-100
G1 Y-100
G1 X0
G1 Y0
G1 X-100
G1 Y-100
G1 X0
G1 Y0
G1 X-100
G1 Y-100
G1 X0
G1 Y0
G1 X-100
G1 Y-100
G1 X0
G1 Y0
G1 X-100
G1 Y-100
G1 X0
G1 Y0
G1 X-100
G1 Y-100
G1 X0
G1 Y0
G1 X-100
G1 Y-100
G1 X0
G1 Y0
G1 X-100
G1 Y-100
G1 X0
G1 Y0
G1 X-100
G1 Y-100
G1 X0
G1 Y0
G1 X-100
G1 Y-100
G1 X0
G1 Y0
G1 X-100
G1 Y-100
G1 X0
G1 Y0
G1 X-100
G1 Y-100
G1 X0
G1 Y0
G1 X-100
G1 Y-100
G1 X0
G1 Y0
G1 X-100
G1 Y-100
G1 X0
G1 Y0
G1 X-100
G1 Y-100
G1 X0
G1 Y0
G1 X-100
G1 Y-100
G1 X0
G1 Y0
G1 X-100
G1 Y-100
G1 X0
G1 Y0
G1 X-100
G1 Y-100
G1 X0
G1 Y0
G1 X-100
G1 Y-100
G1 X0
G1 Y0
G1 X-100
G1 Y-100
G1 X0
G1 Y0
G1 X-100
G1 Y-100
G1 X0
G1 Y0
G1 X-100
G1 Y-100
G1 X0
G1 Y0
G1 X-100
G1 Y-100
G1 X0
G1 Y0
G1 X-100
G1 Y-100
G1 X0
G1 Y0
G1 X-100
G1 Y-100
G1 X0
G1 Y0
G1 X-100
G1 Y-100
G1 X0
G1 Y0
G1 X-100
G1 Y-100
G1 X0
G1 Y0
G1 X-100
G1 Y-100
G1 X0
G1 Y0
G1 X-100
G1 Y-100
G1 X0
G1 Y0
G1 X-100
G1 Y-100
G1 X0
G1 Y0
G1 X-100
G1 Y-100
G1 X0
G1 Y0
G1 X-100
G1 Y-100
G1 X0
G1 Y0
G1 X-100
G1 Y-100
G1 X0
G1 Y0
G1 X-100
G1 Y-100
G1 X0
G1 Y0
G1 X-100
G1 Y-100
G1 X0
G1 Y0
G1 X-100
G1 Y-100
G1 X0
G1 Y0
G1 X-100
G1 Y-100
G1 X0
G1 Y0
G1 X-100
G1 Y-100
G1 X0
G1 Y0
G1 X-100
G1 Y-100
G1 X0
G1 Y0
G1 X-100
G1 Y-100
G1 X0
G1 Y0
G1 X-100
G1 Y-100
G1 X0
G1 Y0
G1 X-100
G1 Y-100
G1 X0
G1 Y0
G1 X-100
G1 Y-100
G1 X0
G1 Y0
G1 X-100
G1 Y-100
G1 X0
G1 Y0
G1 X-100
G1 Y-100
G1 X0
G1 Y0
G1 X-100
G1 Y-100
G1 X0
G1 Y0
G1 X-100
G1 Y-100
G1 X0
G1 Y0
G1 X-100
G1 Y-100
G1 X0
G1 Y0
G1 X-100
G1 Y-100
G1 X0
G1 Y0
G1 X-100
G1 Y-100
G1 X0
G1 Y0
G1 X-100
G1 Y-100
G1 X0
G1 Y0
G1 X-100
G1 Y-100
G1 X0
G1 Y0
G1 X-100
G1 Y-100
G1 X0
G1 Y0
G1 X-100
G1 Y-100
G1 X0
G1 Y0
G1 X-100
G1 Y-100
G1 X0
G1 Y0
G1 X-100
G1 Y-100
G1 X0
G1 Y0
G1 X-100
G1 Y-100
G1 X0
G1 Y0
G1 X-100
G1 Y-100
G1 X0
G1 Y0
G1 X-100
G1 Y-100
G1 X0
G1 Y0
G1 X-100
G1 Y-100
G1 X0
G1 Y0
G1 X-100
G1 Y-100
G1 X0
G1 Y0
G1 X-100
G1 Y-100
G1 X0
G1 Y0
G1 X-100
G1 Y-100
G1 X0
G1 Y0
G1 X-100
G1 Y-100
G1 X0
G1 Y0
G1 X-100
G1 Y-100
G1 X0
G1 Y0
G1 X-100
G1 Y-100
G1 X0
G1 Y0
G1 X-100
G1 Y-100
G1 X0
G1 Y0
G1 X-100
G1 Y-100
G1 X0
G1 Y0
G1 X-100
G1 Y-100
G1 X0
G1 Y0
G1 X-100
G1 Y-100
G1 X0
G1 Y0
G1 X-100
G1 Y-100
G1 X0
G1 Y0
G1 X-100
G1 Y-100
G1 X0
G1 Y0
G1 X-100
G1 Y-100
G1 X0
G1 Y0
G1 X-100
G1 Y-100
G1 X0
G1 Y0
G1 X-100
G1 Y-100
G1 X0
G1 Y0
G1 X-100
G1 Y-100
G1 X0
G1 Y0
G1 X-100
G1 Y-100
G1 X0
G1 Y0
G1 X-100
G1 Y-100
G1 X0
G1 Y0
G1 X-100
G1 Y-100
G1 X0
G1 Y0
G1 X-100
G1 Y-100
G1 X0
G1 Y0
N7720 G0 Z15.
N7725 M5
N7730 G53 G0 Z0.
N7735 M30
%
